Numix/64/mimetypes/image-x-kodak-dcr.svg

<?xml version="1.0" encoding="UTF-8" standalone="no"?>
<svg
   xmlns:dc="http://purl.org/dc/elements/1.1/"
   xmlns:cc="http://creativecommons.org/ns#"
   xmlns:rdf="http://www.w3.org/1999/02/22-rdf-syntax-ns#"
   xmlns:svg="http://www.w3.org/2000/svg"
   xmlns="http://www.w3.org/2000/svg"
   xmlns:sodipodi="http://sodipodi.sourceforge.net/DTD/sodipodi-0.dtd"
   xmlns:inkscape="http://www.inkscape.org/namespaces/inkscape"
   width="64px"
   height="64px"
   viewBox="0 0 64 64"
   version="1.1"
   id="svg2"
   inkscape:version="0.91 r13725"
   sodipodi:docname="image-x-kodak-dcr.svg">
  <metadata
     id="metadata17">
    <rdf:RDF>
      <cc:Work
         rdf:about="">
        <dc:format>image/svg+xml</dc:format>
        <dc:type
           rdf:resource="http://purl.org/dc/dcmitype/StillImage" />
        <dc:title />
      </cc:Work>
    </rdf:RDF>
  </metadata>
  <defs
     id="defs15">
    <clipPath
       id="clipPath-258929573">
      <g
         transform="translate(0,-1004.3622)"
         id="g17">
        <path
           inkscape:connector-curvature="0"
           d="m -24,13 c 0,1.105 -0.672,2 -1.5,2 -0.828,0 -1.5,-0.895 -1.5,-2 0,-1.105 0.672,-2 1.5,-2 0.828,0 1.5,0.895 1.5,2 z"
           transform="matrix(15.333333,0,0,11.5,414.99999,878.8622)"
           style="fill:#1890d0"
           id="path19" />
      </g>
    </clipPath>
    <clipPath
       id="clipPath-258929573-4">
      <g
         transform="translate(0,-1004.3622)"
         id="g17-1">
        <path
           inkscape:connector-curvature="0"
           d="m -24,13 c 0,1.105 -0.672,2 -1.5,2 -0.828,0 -1.5,-0.895 -1.5,-2 0,-1.105 0.672,-2 1.5,-2 0.828,0 1.5,0.895 1.5,2 z"
           transform="matrix(15.333333,0,0,11.5,414.99999,878.8622)"
           style="fill:#1890d0"
           id="path19-5" />
      </g>
    </clipPath>
  </defs>
  <sodipodi:namedview
     pagecolor="#ffffff"
     bordercolor="#666666"
     borderopacity="1"
     objecttolerance="10"
     gridtolerance="10"
     guidetolerance="10"
     inkscape:pageopacity="0"
     inkscape:pageshadow="2"
     inkscape:window-width="1920"
     inkscape:window-height="1013"
     id="namedview13"
     showgrid="true"
     inkscape:zoom="22.627417"
     inkscape:cx="21.459813"
     inkscape:cy="25.175938"
     inkscape:window-x="0"
     inkscape:window-y="27"
     inkscape:window-maximized="1"
     inkscape:current-layer="svg2">
    <inkscape:grid
       type="xygrid"
       id="grid4280" />
  </sodipodi:namedview>
  <path
     inkscape:connector-curvature="0"
     id="path5"
     d="M 10.671875,0 C 9.296875,0 8,1.355469 8,2.789062 L 8,61.210938 C 8,62.566406 9.375,64 10.671875,64 l 42.65625,0 C 54.625,64 56,62.566406 56,61.210938 L 56,18 38,0 Z m 0,0"
     style="fill:#35a14c;fill-opacity:1;fill-rule:nonzero;stroke:none" />
  <path
     inkscape:connector-curvature="0"
     id="path7"
     d="m 42,18 14,14 0,-14 z m 0,0"
     style="fill:#000000;fill-opacity:0.19607801;fill-rule:nonzero;stroke:none" />
  <path
     inkscape:connector-curvature="0"
     id="path9"
     d="M 38,0 55.984375,18 40.757812,18 C 39.410156,18 38,16.574219 38,15.226562 Z m 0,0"
     style="fill:#ffffff;fill-opacity:0.39215698;fill-rule:nonzero;stroke:none" />
  <path
     inkscape:connector-curvature="0"
     id="path13"
     d="M 8,48 8,61.33594 C 8,62.63281 9.375,64 10.664062,64 l 42.671876,0 C 54.625,64 56,62.63281 56,61.33594 L 56,48 Z m 0,0"
     style="fill:#000000;fill-opacity:0.19607801;fill-rule:nonzero;stroke:none" />
  <g
     id="g4282">
    <path
       d="m 20.348449,60.126184 q 0.09546,0.01735 0.210023,0.01735 0.114558,0 0.210024,0 0.80191,0 1.336516,-0.277603 0.553698,-0.277602 0.878282,-0.763406 0.343675,-0.485805 0.477326,-1.14511 0.152744,-0.676656 0.152744,-1.474763 0,-0.694006 -0.114558,-1.353312 -0.114559,-0.659306 -0.400954,-1.16246 -0.286397,-0.503154 -0.782817,-0.798107 -0.496419,-0.312303 -1.279236,-0.312303 -0.152744,0 -0.343675,0.01735 -0.19093,0 -0.343675,0.0347 l 0,7.217661 z M 26,56.482653 q 0,1.492113 -0.420048,2.550472 -0.400955,1.041009 -1.126492,1.700315 -0.725537,0.659305 -1.73747,0.971608 Q 21.72315,62 20.520286,62 19.890215,62 19.279236,61.930599 18.68735,61.878545 18,61.739748 L 18,51.260255 Q 18.801909,51.104104 19.508353,51.052054 20.214796,51 20.825775,51 q 1.164678,0 2.119332,0.312303 0.973747,0.312303 1.642005,0.988958 0.668257,0.659306 1.031026,1.700315 Q 26,55.025235 26,56.482648 Z"
       style="font-style:normal;font-variant:normal;font-weight:bold;font-stretch:normal;font-size:medium;line-height:125%;font-family:'Ubuntu Mono';-inkscape-font-specification:'Ubuntu Mono, Bold';text-align:start;letter-spacing:0px;word-spacing:0px;writing-mode:lr-tb;text-anchor:start;fill:#ffffff;fill-opacity:1;stroke:none;stroke-width:1px;stroke-linecap:butt;stroke-linejoin:miter;stroke-opacity:1"
       id="path4271"
       inkscape:connector-curvature="0" />
    <path
       d="M 32.868779,62 Q 30.497737,62 29.248869,60.56966 28,59.139319 28,56.500001 q 0,-1.311146 0.38009,-2.332818 0.380091,-1.021672 1.049774,-1.719814 0.687783,-0.71517 1.61086,-1.072756 Q 31.9819,51 33.085972,51 q 0.597286,0 1.067874,0.102168 0.488688,0.08514 0.850679,0.204334 0.361991,0.119196 0.597284,0.255418 0.253395,0.136223 0.380092,0.204334 l -0.579186,1.668731 q -0.41629,-0.255418 -1.013574,-0.425697 -0.579186,-0.187306 -1.339367,-0.187306 -0.524887,0 -1.031675,0.187306 -0.488687,0.170279 -0.886877,0.595976 -0.380091,0.408669 -0.633485,1.10681 -0.235294,0.698143 -0.235294,1.736842 0,1.804955 0.651585,2.775543 0.669682,0.953559 2.171944,0.953559 0.868779,0 1.429865,-0.187305 0.579186,-0.187308 0.923077,-0.374613 L 36,61.267802 Q 35.529411,61.540247 34.714932,61.778637 33.918553,62 32.868779,62 Z"
       style="font-style:normal;font-variant:normal;font-weight:bold;font-stretch:normal;font-size:medium;line-height:125%;font-family:'Ubuntu Mono';-inkscape-font-specification:'Ubuntu Mono, Bold';text-align:start;letter-spacing:0px;word-spacing:0px;writing-mode:lr-tb;text-anchor:start;fill:#ffffff;fill-opacity:1;stroke:none;stroke-width:1px;stroke-linecap:butt;stroke-linejoin:miter;stroke-opacity:1"
       id="path4273"
       inkscape:connector-curvature="0" />
    <path
       d="m 40.942529,51 q 0.974712,0 1.765518,0.210862 0.790804,0.210863 1.360919,0.65016 0.570115,0.439297 0.864367,1.1246 0.312644,0.667732 0.312644,1.58147 0,0.948882 -0.404598,1.722045 -0.404598,0.773163 -1.342528,1.177317 0.312643,0.456869 0.662068,1.01917 0.349425,0.544728 0.68046,1.159744 0.331035,0.597444 0.625288,1.21246 Q 45.77931,61.455272 46,62 l -2.372414,0 q -0.422988,-1.054313 -0.993103,-2.020766 -0.551724,-0.984026 -1.195402,-1.985623 l -1.177012,0 0,4.006389 L 38,62 38,51.28115 q 0.331035,-0.07029 0.717241,-0.123003 0.404598,-0.07029 0.809196,-0.08786 0.404597,-0.03514 0.772414,-0.05272 Q 40.666667,51 40.942529,51 Z m 2.004597,3.549521 q 0,-0.861023 -0.551724,-1.265175 -0.551724,-0.404155 -1.452873,-0.404155 -0.128736,0 -0.312644,0.01757 -0.183908,0 -0.367816,0.03514 l 0,3.268372 0.496552,0 q 1.15862,0 1.673563,-0.421726 0.514942,-0.439297 0.514942,-1.230031 z"
       style="font-style:normal;font-variant:normal;font-weight:bold;font-stretch:normal;font-size:medium;line-height:125%;font-family:'Ubuntu Mono';-inkscape-font-specification:'Ubuntu Mono, Bold';text-align:start;letter-spacing:0px;word-spacing:0px;writing-mode:lr-tb;text-anchor:start;fill:#ffffff;fill-opacity:1;stroke:none;stroke-width:1px;stroke-linecap:butt;stroke-linejoin:miter;stroke-opacity:1"
       id="path4275"
       inkscape:connector-curvature="0" />
  </g>
  <g
     transform="matrix(0.80051185,0,0,0.80026785,12.788106,12.78717)"
     style="fill:#ffffff;fill-opacity:1"
     id="g59">
    <g
       id="g61"
       clip-path="url(#clipPath-258929573-4)"
       style="fill:#ffffff">
      <!-- color: #3d3d3d -->
      <g
         id="g63"
         style="fill:#ffffff">
        <path
           inkscape:connector-curvature="0"
           d="M 27.08,9.641 23.471,19.793 37.705,17.43 C 35.603,13.438 31.721,10.5 27.08,9.641 m 0,0"
           style="fill:#ffffff;fill-rule:nonzero;stroke:none"
           id="path65" />
        <path
           inkscape:connector-curvature="0"
           d="m 38.15,19.449 -10.738,1.988 9.199,10.98 c 2.457,-3.797 3.09,-8.586 1.527,-12.969 m 0.012,0"
           style="fill:#ffffff;fill-rule:nonzero;stroke:none"
           id="path67" />
        <path
           inkscape:connector-curvature="0"
           d="m 35.07,33.809 -7.121,-8.164 -5.05,13.344 c 4.566,0.195 9.09,-1.656 12.156,-5.18 m 0.012,0"
           style="fill:#ffffff;fill-rule:nonzero;stroke:none"
           id="path69" />
        <path
           inkscape:connector-curvature="0"
           d="m 20.922,38.36 3.617,-10.152 -14.242,2.363 c 2.109,3.996 5.996,6.934 10.625,7.789 m 0,0"
           style="fill:#ffffff;fill-rule:nonzero;stroke:none"
           id="path71" />
        <path
           inkscape:connector-curvature="0"
           d="M 9.852,28.559 20.586,26.571 11.387,15.591 C 8.934,19.392 8.297,24.177 9.86,28.56 m -0.008,0"
           style="fill:#ffffff;fill-rule:nonzero;stroke:none"
           id="path73" />
        <path
           inkscape:connector-curvature="0"
           d="m 12.926,14.207 7.121,8.164 5.05,-13.344 c -4.563,-0.195 -9.09,1.656 -12.152,5.18 m -0.016,0"
           style="fill:#ffffff;fill-rule:nonzero;stroke:none"
           id="path75" />
      </g>
    </g>
  </g>
</svg>

<svg xmlns="http://www.w3.org/2000/svg" viewBox="0 0 64 64">
 <defs>
  
 </defs>
 <path d="m 10.672 0 c -1.375 0 -2.672 1.355 -2.672 2.789 l 0 58.42 c 0 1.355 1.375 2.789 2.672 2.789 l 42.656 0 c 1.297 0 2.672 -1.434 2.672 -2.789 l 0 -43.21 -18 -18 m -27.328 0" style="fill:#35a14c;fill-opacity:1;stroke:none;fill-rule:nonzero"/>
 <path d="m 42 18 14 14 0 -14 z m 0 0" style="fill:#000;fill-opacity:0.196;stroke:none;fill-rule:nonzero"/>
 <path d="m 38 0 17.984 18 -15.227 0 c -1.348 0 -2.758 -1.426 -2.758 -2.773 m 0 -15.227" style="fill:#fff;fill-opacity:0.392;stroke:none;fill-rule:nonzero"/>
 <path d="m 8 48 0 13.336 c 0 1.297 1.375 2.664 2.664 2.664 l 42.672 0 c 1.289 0 2.664 -1.367 2.664 -2.664 l 0 -13.336 m -48 0" style="fill:#000;fill-opacity:0.196;stroke:none;fill-rule:nonzero"/>
 <g>
  <path d="m 20.348 60.13 q 0.095 0.017 0.21 0.017 0.115 0 0.21 0 0.802 0 1.337 -0.278 0.554 -0.278 0.878 -0.763 0.344 -0.486 0.477 -1.145 0.153 -0.677 0.153 -1.475 0 -0.694 -0.115 -1.353 -0.115 -0.659 -0.401 -1.162 -0.286 -0.503 -0.783 -0.798 -0.496 -0.312 -1.279 -0.312 -0.153 0 -0.344 0.017 -0.191 0 -0.344 0.035 l 0 7.218 z m 5.652 -3.644 q 0 1.492 -0.42 2.55 -0.401 1.041 -1.126 1.7 -0.726 0.659 -1.737 0.972 q -0.993 0.295 -2.196 0.295 -0.63 0 -1.241 -0.069 -0.592 -0.052 -1.279 -0.191 l 0 -10.479 q 0.802 -0.156 1.508 -0.208 0.706 -0.052 1.317 -0.052 q 1.165 0 2.119 0.312 0.974 0.312 1.642 0.989 0.668 0.659 1.031 1.7 q 0.382 1.024 0.382 2.481" style="fill:#fff;fill-opacity:1;stroke:none"/>
  <path d="m 32.869 62 q -2.371 0 -3.62 -1.43 -1.249 -1.43 -1.249 -4.07 q 0 -1.311 0.38 -2.333 0.38 -1.022 1.05 -1.72 0.688 -0.715 1.611 -1.073 q 0.941 -0.375 2.045 -0.375 q 0.597 0 1.068 0.102 0.489 0.085 0.851 0.204 0.362 0.119 0.597 0.255 0.253 0.136 0.38 0.204 l -0.579 1.669 q -0.416 -0.255 -1.014 -0.426 -0.579 -0.187 -1.339 -0.187 -0.525 0 -1.032 0.187 -0.489 0.17 -0.887 0.596 -0.38 0.409 -0.633 1.107 -0.235 0.698 -0.235 1.737 0 1.805 0.652 2.776 0.67 0.954 2.172 0.954 0.869 0 1.43 -0.187 0.579 -0.187 0.923 -0.375 l 0.561 1.652 q -0.471 0.272 -1.285 0.511 -0.796 0.221 -1.846 0.221" style="fill:#fff;fill-opacity:1;stroke:none"/>
  <path d="m 40.943 51 q 0.975 0 1.766 0.211 0.791 0.211 1.361 0.65 0.57 0.439 0.864 1.125 0.313 0.668 0.313 1.581 0 0.949 -0.405 1.722 -0.405 0.773 -1.343 1.177 0.313 0.457 0.662 1.019 0.349 0.545 0.68 1.16 0.331 0.597 0.625 1.212 q 0.313 0.597 0.533 1.142 l -2.372 0 q -0.423 -1.054 -0.993 -2.02 -0.552 -0.984 -1.195 -1.986 l -1.177 0 0 4.01 l -2.262 0 0 -10.719 q 0.331 -0.07 0.717 -0.123 0.405 -0.07 0.809 -0.088 0.405 -0.035 0.772 -0.053 q 0.368 -0.018 0.644 -0.018 m 2 3.55 q 0 -0.861 -0.552 -1.265 -0.552 -0.404 -1.453 -0.404 -0.129 0 -0.313 0.018 -0.184 0 -0.368 0.035 l 0 3.268 0.497 0 q 1.159 0 1.674 -0.422 0.515 -0.439 0.515 -1.23 z" style="fill:#fff;fill-opacity:1;stroke:none"/>
 </g>
 <g transform="matrix(0.80051185,0,0,0.80026785,12.788106,12.78717)" style="fill:#fff;fill-opacity:1">
  <g style="clip-path:url(#clipPath-258929573-4);fill:#fff">
   <!-- color: #3d3d3d -->
   <g style="fill:#fff">
    <path d="M 27.08,9.641 23.471,19.793 37.705,17.43 C 35.603,13.438 31.721,10.5 27.08,9.641 m 0,0" style="fill:#fff;stroke:none;fill-rule:nonzero"/>
    <path d="m 38.15 19.449 -10.738 1.988 9.199 10.98 c 2.457 -3.797 3.09 -8.586 1.527 -12.969 m 0.012 0" style="fill:#fff;stroke:none;fill-rule:nonzero"/>
    <path d="m 35.07 33.809 -7.121 -8.164 -5.05 13.344 c 4.566 0.195 9.09 -1.656 12.156 -5.18 m 0.012 0" style="fill:#fff;stroke:none;fill-rule:nonzero"/>
    <path d="m 20.922 38.36 3.617 -10.152 -14.242 2.363 c 2.109 3.996 5.996 6.934 10.625 7.789 m 0 0" style="fill:#fff;stroke:none;fill-rule:nonzero"/>
    <path d="M 9.852,28.559 20.586,26.571 11.387,15.591 C 8.934,19.392 8.297,24.177 9.86,28.56 m -0.008,0" style="fill:#fff;stroke:none;fill-rule:nonzero"/>
    <path d="m 12.926 14.207 7.121 8.164 5.05 -13.344 c -4.563 -0.195 -9.09 1.656 -12.152 5.18 m -0.016 0" style="fill:#fff;stroke:none;fill-rule:nonzero"/>
   </g>
  </g>
 </g>
</svg>
